src/assets/img/emotes/luv.svg

<svg xmlns:xlink="http://www.w3.org/1999/xlink" height="23.5" width="23.5" xmlns="http://www.w3.org/2000/svg"><g transform="translate(40.05 13)"><use height="23.45" transform="translate(-40 -13)" width="23.45" xlink:href="#a"/><use height="10.25" transform="translate(-34 -5.85)" width="12.45" xlink:href="#b"/></g><defs><path d="m-30.7-5.85 1.8.45q.9.45 1.2 1.25l.45-.7q.9-1.05 2.45-1 1.25 0 2.25.7l.35.3v.05l.15.15.05.05q.45.6.45 1.35 0 2.3-3.2 4.65-2.3 1.6-5.65 3v-.15l.1-.9q0-1.35-.95-2.4l-1.8-1.7Q-34-1.8-34-3.05q0-1.25.95-2l.05-.05.05-.05.15-.1h.05l.05-.05.05-.05h.05v-.05l.6-.2.5-.2h.05l.75-.05" fill="#fff" fill-rule="evenodd" transform="translate(34 5.85)" id="b"/><use height="23.45" width="23.45" xlink:href="#c" id="a"/><g id="c"><path d="m-3.35-10.25 3.4-.5 2.2.2q2.2.45 4 1.8L7.6-7.6q3.15 3.2 3.15 7.6 0 4.45-3.15 7.6v.05Q4.4 10.7.05 10.7l-2.4-.25q-2.3-.5-4.2-1.9l-1-.9-.05-.05q-3.15-3.15-3.1-7.55V-.1q-.05-2.95 1.45-5.35L-7.6-7.6l.7-.65 1.85-1.25 1.7-.75M1.9 1.85h-.05v.05l.05-.05" fill="#f39" fill-rule="evenodd" transform="translate(11.7 11.75)"/><path d="m4.1 19.35.05.05 1 .9q1.9 1.4 4.2 1.9M17.95 3q-1.8-1.35-4-1.8" fill="none" stroke="#f39" stroke-linecap="round" stroke-linejoin="round" stroke-width="2"/><path d="m9.35 22.2 2.4.25q4.35 0 7.55-3.05v-.05q3.15-3.15 3.15-7.6 0-4.4-3.15-7.6L17.95 3" fill="none" stroke="#c06" stroke-linecap="round" stroke-linejoin="round" stroke-width="2"/><path d="m13.95 1.2-2.2-.2-3.4.5m-1.7.75L4.8 3.5M2.45 6.3Q.95 8.7 1 11.65v.15q-.05 4.4 3.1 7.55" fill="none" stroke="#f9c" stroke-linecap="round" stroke-linejoin="round" stroke-width="2"/><path d="m8.35 1.5-1.7.75M4.8 3.5l-.7.65L2.45 6.3" fill="none" stroke="#fff" stroke-linecap="round" stroke-linejoin="round" stroke-width="2"/></g></defs></svg>

<?xml version="1.0" encoding="UTF-8" standalone="no"?>
<svg xmlns:xlink="http://www.w3.org/1999/xlink" height="23.5px" width="23.5px" xmlns="http://www.w3.org/2000/svg">
  <g transform="matrix(1.0, 0.0, 0.0, 1.0, 40.05, 13.0)">
    <use height="23.45" transform="matrix(1.0, 0.0, 0.0, 1.0, -40.0, -13.0)" width="23.45" xlink:href="#sprite0"/>
    <use height="10.25" transform="matrix(1.0, 0.0, 0.0, 1.0, -34.0, -5.85)" width="12.45" xlink:href="#shape1"/>
  </g>
  <defs>
    <g id="sprite0" transform="matrix(1.0, 0.0, 0.0, 1.0, 11.7, 11.75)">
      <use height="23.45" transform="matrix(1.0, 0.0, 0.0, 1.0, -11.7, -11.75)" width="23.45" xlink:href="#shape0"/>
    </g>
    <g id="shape0" transform="matrix(1.0, 0.0, 0.0, 1.0, 11.7, 11.75)">
      <path d="M-3.35 -10.25 L0.05 -10.75 2.25 -10.55 Q4.45 -10.1 6.25 -8.75 L7.6 -7.6 Q10.75 -4.4 10.75 0.0 10.75 4.45 7.6 7.6 L7.6 7.65 Q4.4 10.7 0.05 10.7 L-2.35 10.45 Q-4.65 9.95 -6.55 8.55 L-7.55 7.65 -7.6 7.6 Q-10.75 4.45 -10.7 0.05 L-10.7 -0.1 Q-10.75 -3.05 -9.25 -5.45 L-7.6 -7.6 -6.9 -8.25 -5.05 -9.5 -3.35 -10.25 M1.9 1.85 L1.85 1.85 1.85 1.9 1.9 1.85" fill="#ff3399" fill-rule="evenodd" stroke="none"/>
      <path d="M-7.6 7.6 L-7.55 7.65 -6.55 8.55 Q-4.65 9.95 -2.35 10.45 M6.25 -8.75 Q4.45 -10.1 2.25 -10.55" fill="none" stroke="#ff3399" stroke-linecap="round" stroke-linejoin="round" stroke-width="2.0"/>
      <path d="M-2.35 10.45 L0.05 10.7 Q4.4 10.7 7.6 7.65 L7.6 7.6 Q10.75 4.45 10.75 0.0 10.75 -4.4 7.6 -7.6 L6.25 -8.75" fill="none" stroke="#cc0066" stroke-linecap="round" stroke-linejoin="round" stroke-width="2.0"/>
      <path d="M2.25 -10.55 L0.05 -10.75 -3.35 -10.25 M-5.05 -9.5 L-6.9 -8.25 M-9.25 -5.45 Q-10.75 -3.05 -10.7 -0.1 L-10.7 0.05 Q-10.75 4.45 -7.6 7.6" fill="none" stroke="#ff99cc" stroke-linecap="round" stroke-linejoin="round" stroke-width="2.0"/>
      <path d="M-3.35 -10.25 L-5.05 -9.5 M-6.9 -8.25 L-7.6 -7.6 -9.25 -5.45" fill="none" stroke="#ffffff" stroke-linecap="round" stroke-linejoin="round" stroke-width="2.0"/>
    </g>
    <g id="shape1" transform="matrix(1.0, 0.0, 0.0, 1.0, 34.0, 5.85)">
      <path d="M-30.7 -5.85 L-28.9 -5.4 Q-28.0 -4.95 -27.7 -4.15 L-27.25 -4.85 Q-26.35 -5.9 -24.8 -5.85 -23.55 -5.85 -22.55 -5.15 L-22.2 -4.85 -22.2 -4.8 -22.05 -4.65 -22.0 -4.6 Q-21.55 -4.0 -21.55 -3.25 -21.55 -0.95 -24.75 1.4 -27.05 3.0 -30.4 4.4 L-30.4 4.25 -30.3 3.35 Q-30.3 2.0 -31.25 0.95 L-33.05 -0.75 Q-34.0 -1.8 -34.0 -3.05 -34.0 -4.3 -33.05 -5.05 L-33.0 -5.1 -32.95 -5.15 -32.8 -5.25 -32.75 -5.25 -32.7 -5.3 -32.65 -5.35 -32.6 -5.35 -32.6 -5.4 -32.0 -5.6 -31.5 -5.8 -31.45 -5.8 -30.7 -5.85" fill="#ffffff" fill-rule="evenodd" stroke="none"/>
    </g>
  </defs>
</svg>
